icons/breezeLight/actions/16/folder.svg

<svg viewBox="0 0 16 16" xmlns="http://www.w3.org/2000/svg"><path d="m2 2v1 3 1 6 1h12v-1-7-1-1h-4.9921875l-2-2-.0078125.0078125v-.0078125h-4zm1 1h3.5917969l1.0019531 1h-.59375v.0078125l-.0078125-.0078125-2 2h-1.9921875zm0 4h10v6h-10z" fill="#4d4d4d"/></svg>

<svg xmlns="http://www.w3.org/2000/svg" viewBox="0 0 16 16">
  <defs id="defs3051">
    <style type="text/css" id="current-color-scheme">
      .ColorScheme-Text {
        color:#4d4d4d;
      }
      </style>
  </defs>
 <path style="fill:currentColor;fill-opacity:1;stroke:none" 
       d="M 2 2 L 2 3 L 2 6 L 2 7 L 2 13 L 2 14 L 14 14 L 14 13 L 14 6 L 14 5 L 14 4 L 9.0078125 4 L 7.0078125 2 L 7 2.0078125 L 7 2 L 3 2 L 2 2 z M 3 3 L 6.5917969 3 L 7.59375 4 L 7 4 L 7 4.0078125 L 6.9921875 4 L 4.9921875 6 L 3 6 L 3 3 z M 3 7 L 13 7 L 13 13 L 3 13 L 3 7 z "
       class="ColorScheme-Text"
       />
</svg>
